assets/icons/cloud.svg

<svg width="20" height="20" viewBox="0 0 20 20" fill="none" xmlns="http://www.w3.org/2000/svg">
<path d="M6.2164 16.1169H4.61636C2.16636 15.9419 1.06641 14.0586 1.06641 12.3836C1.06641 10.7086 2.16637 8.81694 4.57471 8.65028C4.91637 8.61694 5.21636 8.88361 5.24136 9.23361C5.26636 9.57527 5.00807 9.87528 4.65807 9.90028C3.0414 10.0169 2.31641 11.2336 2.31641 12.3919C2.31641 13.5503 3.0414 14.7669 4.65807 14.8836H6.2164C6.55807 14.8836 6.8414 15.1669 6.8414 15.5086C6.8414 15.8503 6.55807 16.1169 6.2164 16.1169Z" fill="#7F7F7F"/>
<path d="M13.8917 16.1175C13.8751 16.1175 13.8668 16.1175 13.8501 16.1175C13.5084 16.1175 13.1918 15.8341 13.1918 15.4925C13.1918 15.1341 13.4584 14.8675 13.8084 14.8675C14.8334 14.8675 15.7501 14.5091 16.4668 13.8675C17.7668 12.7341 17.8501 11.1008 17.5001 9.95082C17.1501 8.80915 16.1751 7.50082 14.4751 7.29248C14.2001 7.25915 13.9834 7.05082 13.9334 6.77582C13.6001 4.77582 12.5251 3.39248 10.8918 2.89248C9.20843 2.36748 7.24173 2.88415 6.01673 4.16748C4.82507 5.40915 4.55007 7.15082 5.24174 9.06749C5.35841 9.39249 5.19178 9.75081 4.86678 9.86748C4.54178 9.98415 4.18343 9.81748 4.06676 9.49248C3.2251 7.14248 3.60844 4.89248 5.11677 3.30915C6.65844 1.69248 9.13343 1.05081 11.2584 1.70081C13.2084 2.30081 14.5834 3.90914 15.0834 6.14248C16.7834 6.52581 18.1501 7.81749 18.6918 9.60082C19.2834 11.5425 18.7501 13.5425 17.2918 14.8092C16.3668 15.6425 15.1584 16.1175 13.8917 16.1175Z" fill="#7F7F7F"/>
<path d="M10.0026 18.5667C8.3276 18.5667 6.76095 17.6751 5.90262 16.2334C5.81095 16.0917 5.71929 15.9251 5.64429 15.7417C5.36095 15.1501 5.21094 14.4751 5.21094 13.7751C5.21094 11.1334 7.36094 8.9834 10.0026 8.9834C12.6443 8.9834 14.7943 11.1334 14.7943 13.7751C14.7943 14.4834 14.6443 15.1501 14.3443 15.7667C14.2776 15.9251 14.186 16.0917 14.086 16.2501C13.2443 17.6751 11.6776 18.5667 10.0026 18.5667ZM10.0026 10.2334C8.0526 10.2334 6.46094 11.8251 6.46094 13.7751C6.46094 14.2917 6.56928 14.7751 6.77761 15.2167C6.84427 15.3584 6.90259 15.4751 6.96926 15.5834C7.60259 16.6584 8.76093 17.3167 9.99426 17.3167C11.2276 17.3167 12.3859 16.6584 13.0109 15.6001C13.0859 15.4751 13.1526 15.3584 13.2026 15.2417C13.4276 14.7834 13.5359 14.3001 13.5359 13.7834C13.5443 11.8251 11.9526 10.2334 10.0026 10.2334Z" fill="#7F7F7F"/>
<path d="M9.52215 15.225C9.36382 15.225 9.20551 15.1667 9.08051 15.0417L8.25547 14.2167C8.0138 13.975 8.0138 13.575 8.25547 13.3334C8.49714 13.0917 8.89713 13.0917 9.1388 13.3334L9.53883 13.7334L10.8721 12.5C11.1305 12.2667 11.5221 12.2834 11.7555 12.5334C11.9888 12.7834 11.9722 13.1834 11.7222 13.4167L9.94716 15.0584C9.82216 15.1667 9.67215 15.225 9.52215 15.225Z" fill="#7F7F7F"/>
</svg>

<svg xmlns="http://www.w3.org/2000/svg" width="20" height="20" fill="none" viewBox="0 0 20 20"><path fill="#7f7f7f" d="M6.216 16.117h-1.6c-2.45-.175-3.55-2.058-3.55-3.733s1.1-3.567 3.509-3.734a.62.62 0 0 1 .666.584.625.625 0 0 1-.583.666c-1.617.117-2.342 1.334-2.342 2.492s.725 2.375 2.342 2.492h1.558a.63.63 0 0 1 .625.625.615.615 0 0 1-.625.608"/><path fill="#7f7f7f" d="M13.892 16.118h-.042c-.342 0-.658-.284-.658-.625 0-.359.266-.626.616-.626a3.92 3.92 0 0 0 2.659-1c1.3-1.133 1.383-2.766 1.033-3.916-.35-1.142-1.325-2.45-3.025-2.659a.63.63 0 0 1-.542-.516c-.333-2-1.408-3.384-3.041-3.884-1.684-.525-3.65-.008-4.875 1.275-1.192 1.242-1.467 2.984-.775 4.9a.624.624 0 1 1-1.175.425c-.842-2.35-.459-4.6 1.05-6.183 1.541-1.617 4.016-2.258 6.141-1.608 1.95.6 3.325 2.208 3.825 4.441 1.7.384 3.067 1.675 3.609 3.459.591 1.941.058 3.941-1.4 5.208a5.08 5.08 0 0 1-3.4 1.309"/><path fill="#7f7f7f" d="M10.003 18.567a4.79 4.79 0 0 1-4.1-2.334 3 3 0 0 1-.259-.491 4.56 4.56 0 0 1-.433-1.967 4.8 4.8 0 0 1 4.792-4.792 4.8 4.8 0 0 1 4.791 4.792 4.5 4.5 0 0 1-.45 1.992 3.4 3.4 0 0 1-.258.483 4.76 4.76 0 0 1-4.083 2.317m0-8.334a3.55 3.55 0 0 0-3.542 3.542q.002.777.317 1.442c.066.141.125.258.191.366a3.52 3.52 0 0 0 3.025 1.734 3.52 3.52 0 0 0 3.017-1.717c.075-.125.142-.242.192-.358.225-.459.333-.942.333-1.459a3.54 3.54 0 0 0-3.533-3.55"/><path fill="#7f7f7f" d="M9.522 15.225a.62.62 0 0 1-.441-.183l-.826-.825a.63.63 0 0 1 0-.884.63.63 0 0 1 .884 0l.4.4 1.333-1.233a.63.63 0 0 1 .883.033.63.63 0 0 1-.033.884l-1.775 1.641a.65.65 0 0 1-.425.167"/></svg>
